X:1
T:Neckens favoritschottis
M:4/4
N:Medin kallades Necken då han brukade nicka i takt till musiken när han spelade.
O:Svenljunga, Västergötland
S:August Medin (Necken)
Z:2012-08-01 Per Oldberg
L:1/8
R:Schottis
K:G
dc | B2Bd G2GF | E2ccc2c2 | DD FA DD FA | G2 Be d2dc | 
B2Bd G2GF | E2ccc2c2 | DD FA DD FA | G2G2G2 ::
ze | dB Ge dB Ge | d2 cA F2F2 | A2B2c2d2 | ed ^cd B2Ge | 
dB Ge dB Ge | d2 cA F2F2 | A2Bc d2 ef | g2g2g2 :|

